packages/sources/icons/src/vitamix/facebook-fill.svg

<svg width="16" height="16" viewBox="0 0 16 16" xmlns="http://www.w3.org/2000/svg"><path d="M9.33329 9.00001H11L11.6666 6.33334H9.33329V5.00001C9.33329 4.31334 9.33329 3.66668 10.6666 3.66668H11.6666V1.42668C11.4493 1.39801 10.6286 1.33334 9.76196 1.33334C7.95196 1.33334 6.66663 2.43801 6.66663 4.46668V6.33334H4.66663V9.00001H6.66663V14.6667H9.33329V9.00001Z"/></svg>

<svg width="16" height="16" xmlns="http://www.w3.org/2000/svg"><path d="M9.333 9H11l.667-2.667H9.333V5c0-.687 0-1.333 1.334-1.333h1v-2.24a18.775 18.775 0 0 0-1.905-.094c-1.81 0-3.095 1.105-3.095 3.134v1.866h-2V9h2v5.667h2.666V9Z"/></svg>
